tools/download-figma-icons/icons/outlined-large/paperless-alternative.svg

<svg xmlns="http://www.w3.org/2000/svg" width="64" height="65" fill="none" viewBox="0 0 64 65"><path fill="currentColor" fill-rule="evenodd" d="M50 50.262c-.49.07-.99.11-1.5.11s-1.01-.04-1.5-.11c-5.08-.73-9-5.11-9-10.39 0-2.2.68-4.23 1.83-5.921L47 41.052l3 2.97 4.5 4.46c-1.32.92-2.85 1.55-4.5 1.78m-3 10.74H5v-58h25.764v12.205c0 2.227 1.819 4.038 4.055 4.038h8.247a1.5 1.5 0 1 0 0-3h-8.247a1.047 1.047 0 0 1-1.055-1.038V3.406L47 16.762v9.7c-3.25.35-6.16 1.88-8.3 4.14-.03.02-.05.04-.07.06-.03.03-.07.07-.09.11-.04.04-.07.08-.101.12A13.36 13.36 0 0 0 35 39.872c0 6.94 5.26 12.67 12 13.41zm12-21.13c0 2.48-.86 4.76-2.311 6.55L50 39.802l-3-2.97-5.14-5.08c1.44-1.19 3.21-2 5.14-2.27.49-.07.99-.11 1.5-.11s1.01.04 1.5.11c5.08.73 9 5.11 9 10.39m-9-13.41v-10.31c0-.4-.16-.78-.43-1.06L35.05.442c-.28-.28-.67-.44-1.071-.44H32.28L32.264 0l-.017.002H3.5c-.83 0-1.5.67-1.5 1.5v61c0 .83.67 1.5 1.5 1.5h45c.83 0 1.5-.67 1.5-1.5v-9.22c2.939-.32 5.59-1.59 7.66-3.51.06-.03.11-.08.16-.13.03-.03.06-.06.08-.09 2.53-2.45 4.1-5.89 4.1-9.68 0-6.93-5.26-12.671-12-13.41" clip-rule="evenodd"/></svg>

<svg width="64" height="65" viewBox="0 0 64 65" fill="none" xmlns="http://www.w3.org/2000/svg">
<path fill-rule="evenodd" clip-rule="evenodd" d="M50 50.262C49.51 50.332 49.01 50.372 48.5 50.372C47.99 50.372 47.49 50.332 47 50.262C41.92 49.532 38 45.152 38 39.872C38 37.672 38.68 35.642 39.83 33.951L47 41.052L50 44.022L54.5 48.482C53.18 49.402 51.65 50.032 50 50.262ZM47 61.002H5V3.002H30.764V15.207C30.764 17.434 32.583 19.245 34.819 19.245H43.066C43.895 19.245 44.566 18.574 44.566 17.745C44.566 16.917 43.895 16.245 43.066 16.245H34.819C34.237 16.245 33.764 15.78 33.764 15.207V3.406L47 16.762V26.462C43.75 26.812 40.84 28.342 38.7 30.602C38.67 30.622 38.65 30.642 38.63 30.662C38.6 30.692 38.56 30.732 38.54 30.772C38.5 30.812 38.47 30.852 38.439 30.892C36.29 33.272 35 36.432 35 39.872C35 46.812 40.26 52.542 47 53.282V61.002ZM59 39.872C59 42.352 58.14 44.632 56.689 46.422L50 39.802L47 36.832L41.86 31.752C43.3 30.562 45.07 29.752 47 29.482C47.49 29.412 47.99 29.372 48.5 29.372C49.01 29.372 49.51 29.412 50 29.482C55.08 30.212 59 34.592 59 39.872ZM50 26.462V16.152C50 15.752 49.84 15.372 49.57 15.092L35.05 0.442C34.77 0.162 34.38 0.002 33.979 0.002H32.28C32.274 0.002 32.27 0 32.264 0C32.258 0 32.253 0.002 32.247 0.002H3.5C2.67 0.002 2 0.672 2 1.502V62.502C2 63.332 2.67 64.002 3.5 64.002H48.5C49.33 64.002 50 63.332 50 62.502V53.282C52.939 52.962 55.59 51.692 57.66 49.772C57.72 49.742 57.77 49.692 57.82 49.642C57.85 49.612 57.88 49.582 57.9 49.552C60.43 47.102 62 43.662 62 39.872C62 32.942 56.74 27.201 50 26.462Z" fill="black"/>
</svg>
